Adwaita/scalable/actions/format-text-direction-symbolic.svg

<?xml version="1.0" encoding="UTF-8"?>
<svg height="16px" viewBox="0 0 16 16" width="16px" xmlns="http://www.w3.org/2000/svg">
    <g fill="#2e3436">
        <path d="m 2 0 v 2 h 6 c 0.429688 0 1 0.613281 1 1 v 1 h -5 c -0.917969 0 -1.734375 0.382812 -2.25 0.96875 s -0.757812 1.3125 -0.75 2.03125 s 0.269531 1.453125 0.78125 2.03125 s 1.3125 0.96875 2.21875 0.96875 h 7 v -7 c 0 -1.632812 -1.320312 -3 -3 -3 z m 2 6 h 5 v 2 h -5 c -0.398438 0 -0.566406 -0.109375 -0.71875 -0.28125 s -0.277344 -0.4375 -0.28125 -0.71875 c 0 -0.28125 0.105469 -0.554688 0.25 -0.71875 s 0.328125 -0.28125 0.75 -0.28125 z m 0 0"/>
        <path d="m 12 15 h 1 c 0.265625 0 0.53125 -0.09375 0.71875 -0.28125 l 2.28125 -2.28125 v -0.875 l -2.28125 -2.28125 c -0.1875 -0.1875 -0.453125 -0.28125 -0.71875 -0.28125 h -1 v 1 c 0 0.265625 0.09375 0.53125 0.28125 0.71875 l 1.28125 1.28125 l -1.28125 1.28125 c -0.1875 0.1875 -0.28125 0.453125 -0.28125 0.71875 z m 0 0"/>
        <path d="m 0.9375 11 v 2 h 13.0625 v -2 z m 0 0"/>
    </g>
</svg>

<svg xmlns="http://www.w3.org/2000/svg" width="16" height="16"><g color="#000" font-weight="400" fill="#474747"><path d="M2 0v2h6c.428 0 1 .614 1 1v1H4c-.92 0-1.735.384-2.25.969A3.017 3.017 0 001 7c.006.72.269 1.453.781 2.031.513.579 1.31.969 2.22.969h7V3a3 3 0 00-3-3zm2 6h5v2H4c-.398 0-.567-.11-.719-.281A1.144 1.144 0 013.001 7c-.003-.28.104-.554.25-.719C3.394 6.116 3.577 6 4 6z" style="line-height:normal;-inkscape-font-specification:Sans;text-indent:0;text-align:start;text-decoration-line:none;text-transform:none;marker:none" font-size="xx-small" font-family="Sans" overflow="visible"/><path d="M12 15h1c.265 0 .53-.093.719-.281l2-2 .281-.282v-.874l-.281-.282-2-2A1.015 1.015 0 0013 9h-1v1c0 .265.093.53.281.719L13.562 12l-1.28 1.281A1.015 1.015 0 0012 14v1z" style="line-height:normal;-inkscape-font-specification:'Bitstream Vera Sans';text-indent:0;text-align:start;text-decoration-line:none;text-transform:none;marker:none" font-family="Bitstream Vera Sans" overflow="visible"/><path d="M.938 11v2H14v-2z" style="line-height:normal;font-variant-ligatures:normal;font-variant-position:normal;font-variant-caps:normal;font-variant-numeric:normal;font-variant-alternates:normal;font-feature-settings:normal;text-indent:0;text-align:start;text-decoration-line:none;text-decoration-style:solid;text-decoration-color:#000;text-transform:none;text-orientation:mixed;shape-padding:0;isolation:auto;mix-blend-mode:normal;marker:none" font-family="sans-serif" overflow="visible"/></g></svg>
